images/296473.svg

<?xml version="1.0" encoding="UTF-8"?>
<svg xmlns="http://www.w3.org/2000/svg" xmlns:xlink="http://www.w3.org/1999/xlink" width="300pt" height="300pt" viewBox="0 0 300 300" version="1.1">
<defs>
<g>
<symbol overflow="visible" id="glyph0-0">
<path style="stroke:none;" d="M 0.453125 1.59375 L 0.453125 -6.34375 L 4.953125 -6.34375 L 4.953125 1.59375 Z M 0.953125 1.09375 L 4.453125 1.09375 L 4.453125 -5.84375 L 0.953125 -5.84375 Z M 0.953125 1.09375 "/>
</symbol>
<symbol overflow="visible" id="glyph0-1">
<path style="stroke:none;" d="M 3.546875 -5.953125 C 2.898438 -5.953125 2.382812 -5.710938 2 -5.234375 C 1.625 -4.753906 1.4375 -4.101562 1.4375 -3.28125 C 1.4375 -2.445312 1.625 -1.789062 2 -1.3125 C 2.382812 -0.832031 2.898438 -0.59375 3.546875 -0.59375 C 4.191406 -0.59375 4.703125 -0.832031 5.078125 -1.3125 C 5.453125 -1.789062 5.640625 -2.445312 5.640625 -3.28125 C 5.640625 -4.101562 5.453125 -4.753906 5.078125 -5.234375 C 4.703125 -5.710938 4.191406 -5.953125 3.546875 -5.953125 Z M 3.546875 -6.6875 C 4.460938 -6.6875 5.195312 -6.375 5.75 -5.75 C 6.300781 -5.132812 6.578125 -4.3125 6.578125 -3.28125 C 6.578125 -2.238281 6.300781 -1.410156 5.75 -0.796875 C 5.195312 -0.179688 4.460938 0.125 3.546875 0.125 C 2.617188 0.125 1.878906 -0.179688 1.328125 -0.796875 C 0.773438 -1.410156 0.5 -2.238281 0.5 -3.28125 C 0.5 -4.3125 0.773438 -5.132812 1.328125 -5.75 C 1.878906 -6.375 2.617188 -6.6875 3.546875 -6.6875 Z M 3.546875 -6.6875 "/>
</symbol>
<symbol overflow="visible" id="glyph0-2">
<path style="stroke:none;" d="M 0.890625 -6.5625 L 2.078125 -6.5625 L 4.984375 -1.078125 L 4.984375 -6.5625 L 5.84375 -6.5625 L 5.84375 0 L 4.65625 0 L 1.75 -5.484375 L 1.75 0 L 0.890625 0 Z M 0.890625 -6.5625 "/>
</symbol>
<symbol overflow="visible" id="glyph0-3">
<path style="stroke:none;" d="M 5.796875 -6.0625 L 5.796875 -5.125 C 5.492188 -5.394531 5.171875 -5.597656 4.828125 -5.734375 C 4.492188 -5.878906 4.140625 -5.953125 3.765625 -5.953125 C 3.015625 -5.953125 2.4375 -5.722656 2.03125 -5.265625 C 1.632812 -4.804688 1.4375 -4.144531 1.4375 -3.28125 C 1.4375 -2.414062 1.632812 -1.753906 2.03125 -1.296875 C 2.4375 -0.835938 3.015625 -0.609375 3.765625 -0.609375 C 4.140625 -0.609375 4.492188 -0.675781 4.828125 -0.8125 C 5.171875 -0.945312 5.492188 -1.15625 5.796875 -1.4375 L 5.796875 -0.5 C 5.484375 -0.289062 5.15625 -0.132812 4.8125 -0.03125 C 4.46875 0.0703125 4.097656 0.125 3.703125 0.125 C 2.710938 0.125 1.929688 -0.175781 1.359375 -0.78125 C 0.785156 -1.394531 0.5 -2.226562 0.5 -3.28125 C 0.5 -4.332031 0.785156 -5.160156 1.359375 -5.765625 C 1.929688 -6.378906 2.710938 -6.6875 3.703125 -6.6875 C 4.097656 -6.6875 4.46875 -6.632812 4.8125 -6.53125 C 5.164062 -6.425781 5.492188 -6.269531 5.796875 -6.0625 Z M 5.796875 -6.0625 "/>
</symbol>
<symbol overflow="visible" id="glyph0-4">
<path style="stroke:none;" d="M 0.84375 -6.84375 L 1.65625 -6.84375 L 1.65625 0 L 0.84375 0 Z M 0.84375 -6.84375 "/>
</symbol>
<symbol overflow="visible" id="glyph0-5">
<path style="stroke:none;" d="M 0.890625 -6.5625 L 4.65625 -6.5625 L 4.65625 -5.8125 L 1.765625 -5.8125 L 1.765625 -3.875 L 4.375 -3.875 L 4.375 -3.140625 L 1.765625 -3.140625 L 1.765625 0 L 0.890625 0 Z M 0.890625 -6.5625 "/>
</symbol>
</g>
</defs>
<g id="surface52685">
<rect x="0" y="0" width="300" height="300" style="fill:rgb(100%,100%,100%);fill-opacity:1;stroke:none;"/>
<path style="fill:none;stroke-width:1.2;stroke-linecap:butt;stroke-linejoin:miter;stroke:rgb(0%,0%,0%);stroke-opacity:1;stroke-miterlimit:10;" d="M 77.183594 150.992188 L 53.625 158.605469 "/>
<path style="fill:none;stroke-width:1.2;stroke-linecap:butt;stroke-linejoin:miter;stroke:rgb(0%,0%,100%);stroke-opacity:1;stroke-miterlimit:10;" d="M 82.371094 126.777344 L 79.777344 138.886719 "/>
<path style="fill:none;stroke-width:1.2;stroke-linecap:butt;stroke-linejoin:miter;stroke:rgb(0%,0%,0%);stroke-opacity:1;stroke-miterlimit:10;" d="M 79.777344 138.886719 L 77.183594 150.992188 "/>
<path style="fill:none;stroke-width:1.2;stroke-linecap:butt;stroke-linejoin:miter;stroke:rgb(0%,0%,0%);stroke-opacity:1;stroke-miterlimit:10;" d="M 53.625 158.605469 L 44.4375 150.304688 "/>
<path style="fill:none;stroke-width:1.2;stroke-linecap:butt;stroke-linejoin:miter;stroke:rgb(100%,0%,0%);stroke-opacity:1;stroke-miterlimit:10;" d="M 44.4375 150.304688 L 35.25 142.007812 "/>
<path style="fill:none;stroke-width:1.2;stroke-linecap:butt;stroke-linejoin:miter;stroke:rgb(100%,0%,0%);stroke-opacity:1;stroke-miterlimit:10;" d="M 35.25 142.007812 L 37.84375 129.902344 "/>
<path style="fill:none;stroke-width:1.2;stroke-linecap:butt;stroke-linejoin:miter;stroke:rgb(0%,0%,0%);stroke-opacity:1;stroke-miterlimit:10;" d="M 37.84375 129.902344 L 40.4375 117.796875 "/>
<path style=" stroke:none;fill-rule:nonzero;fill:rgb(100%,100%,100%);fill-opacity:1;" d="M 31.25 136.507812 L 39.25 136.507812 L 39.25 147.507812 L 31.25 147.507812 Z M 31.25 136.507812 "/>
<g style="fill:rgb(100%,0%,0%);fill-opacity:1;">
  <use xlink:href="#glyph0-1" x="31.25" y="145.170898"/>
</g>
<path style="fill:none;stroke-width:1.2;stroke-linecap:butt;stroke-linejoin:miter;stroke:rgb(0%,0%,0%);stroke-opacity:1;stroke-miterlimit:10;" d="M 40.4375 117.796875 L 63.996094 110.183594 "/>
<path style="fill:none;stroke-width:1.2;stroke-linecap:butt;stroke-linejoin:miter;stroke:rgb(0%,0%,0%);stroke-opacity:1;stroke-miterlimit:10;" d="M 63.996094 110.183594 L 73.183594 118.480469 "/>
<path style="fill:none;stroke-width:1.2;stroke-linecap:butt;stroke-linejoin:miter;stroke:rgb(0%,0%,100%);stroke-opacity:1;stroke-miterlimit:10;" d="M 73.183594 118.480469 L 82.371094 126.777344 "/>
<path style="fill:none;stroke-width:1.2;stroke-linecap:butt;stroke-linejoin:miter;stroke:rgb(0%,0%,100%);stroke-opacity:1;stroke-miterlimit:10;" d="M 82.371094 126.777344 L 94.152344 122.972656 "/>
<path style="fill:none;stroke-width:1.2;stroke-linecap:butt;stroke-linejoin:miter;stroke:rgb(0%,0%,0%);stroke-opacity:1;stroke-miterlimit:10;" d="M 94.152344 122.972656 L 105.933594 119.164062 "/>
<path style=" stroke:none;fill-rule:nonzero;fill:rgb(100%,100%,100%);fill-opacity:1;" d="M 79.371094 121.277344 L 86.371094 121.277344 L 86.371094 132.277344 L 79.371094 132.277344 Z M 79.371094 121.277344 "/>
<g style="fill:rgb(0%,0%,100%);fill-opacity:1;">
  <use xlink:href="#glyph0-2" x="79.371094" y="129.94043"/>
</g>
<path style="fill:none;stroke-width:1.2;stroke-linecap:butt;stroke-linejoin:miter;stroke:rgb(0%,0%,0%);stroke-opacity:1;stroke-miterlimit:10;" d="M 105.933594 119.164062 L 124.304688 135.761719 "/>
<path style="fill:none;stroke-width:1.2;stroke-linecap:butt;stroke-linejoin:miter;stroke:rgb(0%,0%,0%);stroke-opacity:1;stroke-miterlimit:10;" d="M 124.304688 135.761719 L 147.867188 128.148438 "/>
<path style="fill:none;stroke-width:1.2;stroke-linecap:butt;stroke-linejoin:miter;stroke:rgb(0%,0%,0%);stroke-opacity:1;stroke-miterlimit:10;" d="M 147.867188 128.148438 L 157.054688 136.445312 "/>
<path style="fill:none;stroke-width:1.2;stroke-linecap:butt;stroke-linejoin:miter;stroke:rgb(0%,0%,100%);stroke-opacity:1;stroke-miterlimit:10;" d="M 157.054688 136.445312 L 166.242188 144.746094 "/>
<path style="fill:none;stroke-width:1.2;stroke-linecap:butt;stroke-linejoin:miter;stroke:rgb(0%,0%,100%);stroke-opacity:1;stroke-miterlimit:10;" d="M 166.242188 144.746094 L 178.355469 142.1875 "/>
<path style="fill:none;stroke-width:1.2;stroke-linecap:butt;stroke-linejoin:miter;stroke:rgb(0%,0%,0%);stroke-opacity:1;stroke-miterlimit:10;" d="M 178.355469 142.1875 L 190.46875 139.632812 "/>
<path style="fill:none;stroke-width:1.2;stroke-linecap:butt;stroke-linejoin:miter;stroke:rgb(0%,0%,0%);stroke-opacity:1;stroke-miterlimit:10;" d="M 163.613281 169.363281 L 164.929688 157.054688 "/>
<path style="fill:none;stroke-width:1.2;stroke-linecap:butt;stroke-linejoin:miter;stroke:rgb(0%,0%,100%);stroke-opacity:1;stroke-miterlimit:10;" d="M 164.929688 157.054688 L 166.242188 144.746094 "/>
<path style=" stroke:none;fill-rule:nonzero;fill:rgb(100%,100%,100%);fill-opacity:1;" d="M 163.242188 139.246094 L 170.242188 139.246094 L 170.242188 150.246094 L 163.242188 150.246094 Z M 163.242188 139.246094 "/>
<g style="fill:rgb(0%,0%,100%);fill-opacity:1;">
  <use xlink:href="#glyph0-2" x="163.242188" y="147.90918"/>
</g>
<path style="fill:none;stroke-width:1.2;stroke-linecap:butt;stroke-linejoin:miter;stroke:rgb(0%,0%,0%);stroke-opacity:1;stroke-miterlimit:10;" d="M 190.46875 139.632812 L 202.816406 161.097656 "/>
<path style="fill:none;stroke-width:1.2;stroke-linecap:butt;stroke-linejoin:miter;stroke:rgb(0%,0%,100%);stroke-opacity:1;stroke-miterlimit:10;" d="M 202.882812 118.210938 L 196.675781 128.921875 "/>
<path style="fill:none;stroke-width:1.2;stroke-linecap:butt;stroke-linejoin:miter;stroke:rgb(0%,0%,0%);stroke-opacity:1;stroke-miterlimit:10;" d="M 196.675781 128.921875 L 190.46875 139.632812 "/>
<path style="fill:none;stroke-width:1.2;stroke-linecap:butt;stroke-linejoin:miter;stroke:rgb(0%,0%,100%);stroke-opacity:1;stroke-miterlimit:10;" d="M 206.683594 123.273438 L 201.714844 131.84375 "/>
<path style="fill:none;stroke-width:1.2;stroke-linecap:butt;stroke-linejoin:miter;stroke:rgb(0%,0%,0%);stroke-opacity:1;stroke-miterlimit:10;" d="M 201.714844 131.84375 L 196.75 140.414062 "/>
<path style="fill:none;stroke-width:1.2;stroke-linecap:butt;stroke-linejoin:miter;stroke:rgb(0%,0%,0%);stroke-opacity:1;stroke-miterlimit:10;" d="M 202.816406 161.097656 L 215.195312 161.117188 "/>
<path style="fill:none;stroke-width:1.2;stroke-linecap:butt;stroke-linejoin:miter;stroke:rgb(0%,0%,100%);stroke-opacity:1;stroke-miterlimit:10;" d="M 215.195312 161.117188 L 227.574219 161.136719 "/>
<path style="fill:none;stroke-width:1.2;stroke-linecap:butt;stroke-linejoin:miter;stroke:rgb(0%,0%,0%);stroke-opacity:1;stroke-miterlimit:10;" d="M 205.300781 155.273438 L 215.203125 155.289062 "/>
<path style="fill:none;stroke-width:1.2;stroke-linecap:butt;stroke-linejoin:miter;stroke:rgb(0%,0%,100%);stroke-opacity:1;stroke-miterlimit:10;" d="M 215.203125 155.289062 L 225.109375 155.304688 "/>
<path style="fill:none;stroke-width:1.2;stroke-linecap:butt;stroke-linejoin:miter;stroke:rgb(0%,0%,0%);stroke-opacity:1;stroke-miterlimit:10;" d="M 202.816406 161.097656 L 194.515625 170.285156 "/>
<path style="fill:none;stroke-width:1.2;stroke-linecap:butt;stroke-linejoin:miter;stroke:rgb(0%,0%,100%);stroke-opacity:1;stroke-miterlimit:10;" d="M 194.515625 170.285156 L 186.21875 179.472656 "/>
<path style="fill:none;stroke-width:1.2;stroke-linecap:butt;stroke-linejoin:miter;stroke:rgb(0%,0%,100%);stroke-opacity:1;stroke-miterlimit:10;" d="M 227.574219 161.136719 L 233.78125 150.425781 "/>
<path style="fill:none;stroke-width:1.2;stroke-linecap:butt;stroke-linejoin:miter;stroke:rgb(0%,0%,0%);stroke-opacity:1;stroke-miterlimit:10;" d="M 233.78125 150.425781 L 239.988281 139.710938 "/>
<path style=" stroke:none;fill-rule:nonzero;fill:rgb(100%,100%,100%);fill-opacity:1;" d="M 224.574219 155.636719 L 231.574219 155.636719 L 231.574219 166.636719 L 224.574219 166.636719 Z M 224.574219 155.636719 "/>
<g style="fill:rgb(0%,0%,100%);fill-opacity:1;">
  <use xlink:href="#glyph0-2" x="224.574219" y="164.299805"/>
</g>
<path style="fill:none;stroke-width:1.2;stroke-linecap:butt;stroke-linejoin:miter;stroke:rgb(0%,0%,0%);stroke-opacity:1;stroke-miterlimit:10;" d="M 239.988281 139.710938 L 227.644531 118.25 "/>
<path style="fill:none;stroke-width:1.2;stroke-linecap:butt;stroke-linejoin:miter;stroke:rgb(0%,0%,0%);stroke-opacity:1;stroke-miterlimit:10;" d="M 233.703125 140.472656 L 223.828125 123.300781 "/>
<path style="fill:none;stroke-width:1.2;stroke-linecap:butt;stroke-linejoin:miter;stroke:rgb(0%,0%,0%);stroke-opacity:1;stroke-miterlimit:10;" d="M 239.988281 139.710938 L 252.371094 139.730469 "/>
<path style="fill:none;stroke-width:1.2;stroke-linecap:butt;stroke-linejoin:miter;stroke:rgb(0%,80%,0%);stroke-opacity:1;stroke-miterlimit:10;" d="M 252.371094 139.730469 L 264.75 139.75 "/>
<path style="fill:none;stroke-width:1.2;stroke-linecap:butt;stroke-linejoin:miter;stroke:rgb(0%,0%,0%);stroke-opacity:1;stroke-miterlimit:10;" d="M 227.644531 118.25 L 215.261719 118.230469 "/>
<path style="fill:none;stroke-width:1.2;stroke-linecap:butt;stroke-linejoin:miter;stroke:rgb(0%,0%,100%);stroke-opacity:1;stroke-miterlimit:10;" d="M 215.261719 118.230469 L 202.882812 118.210938 "/>
<path style="fill:none;stroke-width:1.2;stroke-linecap:butt;stroke-linejoin:miter;stroke:rgb(0%,0%,0%);stroke-opacity:1;stroke-miterlimit:10;" d="M 227.644531 118.25 L 233.851562 107.539062 "/>
<path style="fill:none;stroke-width:1.2;stroke-linecap:butt;stroke-linejoin:miter;stroke:rgb(0%,80%,0%);stroke-opacity:1;stroke-miterlimit:10;" d="M 233.851562 107.539062 L 240.058594 96.824219 "/>
<path style=" stroke:none;fill-rule:nonzero;fill:rgb(100%,100%,100%);fill-opacity:1;" d="M 199.882812 112.710938 L 206.882812 112.710938 L 206.882812 123.710938 L 199.882812 123.710938 Z M 199.882812 112.710938 "/>
<g style="fill:rgb(0%,0%,100%);fill-opacity:1;">
  <use xlink:href="#glyph0-2" x="199.882812" y="121.374023"/>
</g>
<path style=" stroke:none;fill-rule:nonzero;fill:rgb(100%,100%,100%);fill-opacity:1;" d="M 235.058594 91.324219 L 245.058594 91.324219 L 245.058594 102.324219 L 235.058594 102.324219 Z M 235.058594 91.324219 "/>
<g style="fill:rgb(0%,80%,0%);fill-opacity:1;">
  <use xlink:href="#glyph0-3" x="235.058594" y="99.987305"/>
  <use xlink:href="#glyph0-4" x="241.572266" y="99.987305"/>
</g>
<path style=" stroke:none;fill-rule:nonzero;fill:rgb(100%,100%,100%);fill-opacity:1;" d="M 259.75 134.25 L 269.75 134.25 L 269.75 145.25 L 259.75 145.25 Z M 259.75 134.25 "/>
<g style="fill:rgb(0%,80%,0%);fill-opacity:1;">
  <use xlink:href="#glyph0-3" x="259.75" y="142.913086"/>
  <use xlink:href="#glyph0-4" x="266.263672" y="142.913086"/>
</g>
<path style="fill:none;stroke-width:1.2;stroke-linecap:butt;stroke-linejoin:miter;stroke:rgb(0%,0%,100%);stroke-opacity:1;stroke-miterlimit:10;" d="M 186.21875 179.472656 L 174.917969 174.417969 "/>
<path style="fill:none;stroke-width:1.2;stroke-linecap:butt;stroke-linejoin:miter;stroke:rgb(0%,0%,0%);stroke-opacity:1;stroke-miterlimit:10;" d="M 174.917969 174.417969 L 163.613281 169.363281 "/>
<path style="fill:none;stroke-width:1.2;stroke-linecap:butt;stroke-linejoin:miter;stroke:rgb(0%,0%,100%);stroke-opacity:1;stroke-miterlimit:10;" d="M 186.335938 173.140625 L 177.292969 169.101562 "/>
<path style="fill:none;stroke-width:1.2;stroke-linecap:butt;stroke-linejoin:miter;stroke:rgb(0%,0%,0%);stroke-opacity:1;stroke-miterlimit:10;" d="M 177.292969 169.101562 L 168.253906 165.058594 "/>
<path style=" stroke:none;fill-rule:nonzero;fill:rgb(100%,100%,100%);fill-opacity:1;" d="M 183.21875 173.972656 L 190.21875 173.972656 L 190.21875 184.972656 L 183.21875 184.972656 Z M 183.21875 173.972656 "/>
<g style="fill:rgb(0%,0%,100%);fill-opacity:1;">
  <use xlink:href="#glyph0-2" x="183.21875" y="182.635742"/>
</g>
<path style="fill:none;stroke-width:1.2;stroke-linecap:butt;stroke-linejoin:miter;stroke:rgb(0%,0%,0%);stroke-opacity:1;stroke-miterlimit:10;" d="M 163.613281 169.363281 L 142.152344 181.710938 "/>
<path style="fill:none;stroke-width:1.2;stroke-linecap:butt;stroke-linejoin:miter;stroke:rgb(0%,0%,0%);stroke-opacity:1;stroke-miterlimit:10;" d="M 142.152344 181.710938 L 131.421875 187.882812 "/>
<path style="fill:none;stroke-width:1.2;stroke-linecap:butt;stroke-linejoin:miter;stroke:rgb(20%,80%,80%);stroke-opacity:1;stroke-miterlimit:10;" d="M 131.421875 187.882812 L 120.6875 194.058594 "/>
<path style="fill:none;stroke-width:1.2;stroke-linecap:butt;stroke-linejoin:miter;stroke:rgb(0%,0%,0%);stroke-opacity:1;stroke-miterlimit:10;" d="M 142.152344 181.710938 L 148.324219 192.441406 "/>
<path style="fill:none;stroke-width:1.2;stroke-linecap:butt;stroke-linejoin:miter;stroke:rgb(20%,80%,80%);stroke-opacity:1;stroke-miterlimit:10;" d="M 148.324219 192.441406 L 154.5 203.175781 "/>
<path style="fill:none;stroke-width:1.2;stroke-linecap:butt;stroke-linejoin:miter;stroke:rgb(0%,0%,0%);stroke-opacity:1;stroke-miterlimit:10;" d="M 142.152344 181.710938 L 135.980469 170.980469 "/>
<path style="fill:none;stroke-width:1.2;stroke-linecap:butt;stroke-linejoin:miter;stroke:rgb(20%,80%,80%);stroke-opacity:1;stroke-miterlimit:10;" d="M 135.980469 170.980469 L 129.804688 160.25 "/>
<path style=" stroke:none;fill-rule:nonzero;fill:rgb(100%,100%,100%);fill-opacity:1;" d="M 114.6875 188.558594 L 120.6875 188.558594 L 120.6875 199.558594 L 114.6875 199.558594 Z M 114.6875 188.558594 "/>
<g style="fill:rgb(20%,80%,80%);fill-opacity:1;">
  <use xlink:href="#glyph0-5" x="114.6875" y="197.22168"/>
</g>
<path style=" stroke:none;fill-rule:nonzero;fill:rgb(100%,100%,100%);fill-opacity:1;" d="M 151.5 197.675781 L 157.5 197.675781 L 157.5 208.675781 L 151.5 208.675781 Z M 151.5 197.675781 "/>
<g style="fill:rgb(20%,80%,80%);fill-opacity:1;">
  <use xlink:href="#glyph0-5" x="151.5" y="206.338867"/>
</g>
<path style=" stroke:none;fill-rule:nonzero;fill:rgb(100%,100%,100%);fill-opacity:1;" d="M 123.804688 154.75 L 129.804688 154.75 L 129.804688 165.75 L 123.804688 165.75 Z M 123.804688 154.75 "/>
<g style="fill:rgb(20%,80%,80%);fill-opacity:1;">
  <use xlink:href="#glyph0-5" x="123.804688" y="163.413086"/>
</g>
</g>
</svg>

<svg xmlns="http://www.w3.org/2000/svg" xmlns:xlink="http://www.w3.org/1999/xlink" width="300pt" height="300pt" viewBox="0 0 300 300"><defs><symbol overflow="visible"><path d="M.453 1.594v-7.938h4.5v7.938zm.5-.5h3.5v-6.938h-3.5zm0 0"/></symbol><symbol overflow="visible" id="a"><path d="M3.547-5.953c-.65 0-1.164.242-1.547.72-.375.48-.563 1.13-.563 1.952 0 .835.188 1.49.563 1.967.383.48.898.72 1.547.72.644 0 1.156-.24 1.53-.72.376-.476.564-1.132.564-1.968 0-.822-.187-1.474-.562-1.954-.375-.477-.887-.72-1.53-.72zm0-.734c.914 0 1.648.312 2.203.937.55.617.828 1.438.828 2.47 0 1.042-.277 1.87-.828 2.483-.555.617-1.29.922-2.203.922-.93 0-1.668-.305-2.22-.922C.774-1.41.5-2.237.5-3.28c0-1.033.273-1.853.828-2.47.55-.625 1.29-.938 2.22-.938zm0 0"/></symbol><symbol overflow="visible" id="b"><path d="M.89-6.563H2.08l2.906 5.485v-5.484h.86V0H4.656L1.75-5.484V0H.89zm0 0"/></symbol><symbol overflow="visible" id="c"><path d="M5.797-6.063v.938c-.305-.27-.625-.473-.97-.61-.335-.144-.686-.218-1.06-.218-.75 0-1.33.23-1.736.687-.397.46-.592 1.12-.592 1.985 0 .866.195 1.526.593 1.983.408.46.986.688 1.736.688.375 0 .726-.066 1.062-.203.344-.132.664-.343.97-.625V-.5c-.314.21-.642.367-.986.47-.343.1-.714.155-1.11.155-.99 0-1.772-.3-2.343-.906C.784-1.396.5-2.228.5-3.28c0-1.052.285-1.88.86-2.486.57-.613 1.35-.92 2.343-.92.395-.002.766.053 1.11.155.35.104.68.26.984.468zm0 0"/></symbol><symbol overflow="visible" id="d"><path d="M.844-6.844h.812V0H.844zm0 0"/></symbol><symbol overflow="visible" id="e"><path d="M.89-6.563h3.766v.75h-2.89v1.938h2.61v.734h-2.61V0H.89zm0 0"/></symbol></defs><g><path fill="#fff" d="M0 0h300v300H0z"/><path d="M77.184 150.992l-23.56 7.613" stroke-width="1.2" stroke="#000" stroke-miterlimit="10" fill="none"/><path d="M82.37 126.777l-2.593 12.11" stroke-width="1.2" stroke="#00f" stroke-miterlimit="10" fill="none"/><path d="M79.777 138.887l-2.593 12.105M53.625 158.605l-9.188-8.3" stroke-width="1.2" stroke="#000" stroke-miterlimit="10" fill="none"/><path d="M44.438 150.305l-9.188-8.297M35.25 142.008l2.594-12.106" stroke-width="1.2" stroke="#f00" stroke-miterlimit="10" fill="none"/><path d="M37.844 129.902l2.593-12.105" stroke-width="1.2" stroke="#000" stroke-miterlimit="10" fill="none"/><path d="M31.25 136.508h8v11h-8zm0 0" fill="#fff"/><use xlink:href="#a" x="31.25" y="145.171" fill="#f00"/><path d="M40.438 117.797l23.558-7.613M63.996 110.184l9.188 8.296" stroke-width="1.2" stroke="#000" stroke-miterlimit="10" fill="none"/><path d="M73.184 118.48l9.187 8.297M82.37 126.777l11.782-3.804" stroke-width="1.2" stroke="#00f" stroke-miterlimit="10" fill="none"/><path d="M94.152 122.973l11.782-3.81" stroke-width="1.2" stroke="#000" stroke-miterlimit="10" fill="none"/><path d="M79.37 121.277h7v11h-7zm0 0" fill="#fff"/><use xlink:href="#b" x="79.371" y="129.94" fill="#00f"/><path d="M105.934 119.164l18.37 16.598M124.305 135.762l23.562-7.614M147.867 128.148l9.188 8.297" stroke-width="1.2" stroke="#000" stroke-miterlimit="10" fill="none"/><path d="M157.055 136.445l9.187 8.3M166.242 144.746l12.113-2.56" stroke-width="1.2" stroke="#00f" stroke-miterlimit="10" fill="none"/><path d="M178.355 142.188l12.114-2.555M163.613 169.363l1.317-12.308" stroke-width="1.2" stroke="#000" stroke-miterlimit="10" fill="none"/><path d="M164.93 157.055l1.312-12.31" stroke-width="1.2" stroke="#00f" stroke-miterlimit="10" fill="none"/><path d="M163.242 139.246h7v11h-7zm0 0" fill="#fff"/><use xlink:href="#b" x="163.242" y="147.909" fill="#00f"/><path d="M190.47 139.633l12.346 21.465" stroke-width="1.2" stroke="#000" stroke-miterlimit="10" fill="none"/><path d="M202.883 118.21l-6.207 10.712" stroke-width="1.2" stroke="#00f" stroke-miterlimit="10" fill="none"/><path d="M196.676 128.922l-6.207 10.71" stroke-width="1.2" stroke="#000" stroke-miterlimit="10" fill="none"/><path d="M206.684 123.273l-4.97 8.57" stroke-width="1.2" stroke="#00f" stroke-miterlimit="10" fill="none"/><path d="M201.715 131.844l-4.965 8.57M202.816 161.098l12.38.02" stroke-width="1.2" stroke="#000" stroke-miterlimit="10" fill="none"/><path d="M215.195 161.117l12.38.02" stroke-width="1.2" stroke="#00f" stroke-miterlimit="10" fill="none"/><path d="M205.3 155.273l9.903.016" stroke-width="1.2" stroke="#000" stroke-miterlimit="10" fill="none"/><path d="M215.203 155.29l9.906.015" stroke-width="1.2" stroke="#00f" stroke-miterlimit="10" fill="none"/><path d="M202.816 161.098l-8.3 9.187" stroke-width="1.2" stroke="#000" stroke-miterlimit="10" fill="none"/><path d="M194.516 170.285l-8.297 9.188M227.574 161.137l6.207-10.71" stroke-width="1.2" stroke="#00f" stroke-miterlimit="10" fill="none"/><path d="M233.78 150.426l6.208-10.715" stroke-width="1.2" stroke="#000" stroke-miterlimit="10" fill="none"/><path d="M224.574 155.637h7v11h-7zm0 0" fill="#fff"/><use xlink:href="#b" x="224.574" y="164.3" fill="#00f"/><path d="M239.988 139.71l-12.343-21.46M233.703 140.473l-9.875-17.172M239.988 139.71l12.383.02" stroke-width="1.2" stroke="#000" stroke-miterlimit="10" fill="none"/><path d="M252.37 139.73l12.38.02" stroke-width="1.2" stroke="#0c0" stroke-miterlimit="10" fill="none"/><path d="M227.645 118.25l-12.383-.02" stroke-width="1.2" stroke="#000" stroke-miterlimit="10" fill="none"/><path d="M215.262 118.23l-12.38-.02" stroke-width="1.2" stroke="#00f" stroke-miterlimit="10" fill="none"/><path d="M227.645 118.25l6.207-10.71" stroke-width="1.2" stroke="#000" stroke-miterlimit="10" fill="none"/><path d="M233.852 107.54l6.207-10.716" stroke-width="1.2" stroke="#0c0" stroke-miterlimit="10" fill="none"/><path d="M199.883 112.71h7v11h-7zm0 0" fill="#fff"/><use xlink:href="#b" x="199.883" y="121.374" fill="#00f"/><path d="M235.06 91.324h10v11h-10zm0 0" fill="#fff"/><g fill="#0c0"><use xlink:href="#c" x="235.059" y="99.987"/><use xlink:href="#d" x="241.572" y="99.987"/></g><path d="M259.75 134.25h10v11h-10zm0 0" fill="#fff"/><g fill="#0c0"><use xlink:href="#c" x="259.75" y="142.913"/><use xlink:href="#d" x="266.264" y="142.913"/></g><path d="M186.22 179.473l-11.302-5.055" stroke-width="1.2" stroke="#00f" stroke-miterlimit="10" fill="none"/><path d="M174.918 174.418l-11.305-5.055" stroke-width="1.2" stroke="#000" stroke-miterlimit="10" fill="none"/><path d="M186.336 173.14l-9.043-4.038" stroke-width="1.2" stroke="#00f" stroke-miterlimit="10" fill="none"/><path d="M177.293 169.102l-9.04-4.043" stroke-width="1.2" stroke="#000" stroke-miterlimit="10" fill="none"/><path d="M183.22 173.973h7v11h-7zm0 0" fill="#fff"/><use xlink:href="#b" x="183.219" y="182.636" fill="#00f"/><path d="M163.613 169.363l-21.46 12.348M142.152 181.71l-10.73 6.173" stroke-width="1.2" stroke="#000" stroke-miterlimit="10" fill="none"/><path d="M131.422 187.883l-10.734 6.176" stroke-width="1.2" stroke="#3cc" stroke-miterlimit="10" fill="none"/><path d="M142.152 181.71l6.172 10.73" stroke-width="1.2" stroke="#000" stroke-miterlimit="10" fill="none"/><path d="M148.324 192.44l6.176 10.736" stroke-width="1.2" stroke="#3cc" stroke-miterlimit="10" fill="none"/><path d="M142.152 181.71l-6.172-10.73" stroke-width="1.2" stroke="#000" stroke-miterlimit="10" fill="none"/><path d="M135.98 170.98l-6.175-10.73" stroke-width="1.2" stroke="#3cc" stroke-miterlimit="10" fill="none"/><path d="M114.688 188.56h6v11h-6zm0 0" fill="#fff"/><use xlink:href="#e" x="114.688" y="197.222" fill="#3cc"/><path d="M151.5 197.676h6v11h-6zm0 0" fill="#fff"/><use xlink:href="#e" x="151.5" y="206.339" fill="#3cc"/><path d="M123.805 154.75h6v11h-6zm0 0" fill="#fff"/><use xlink:href="#e" x="123.805" y="163.413" fill="#3cc"/></g></svg>
